Backpack-Common/Icons/Assets/Media.xcassets/speaker-mute-lg.imageset/speaker-mute-lg.svg

<svg viewBox="0 0 24 24" fill="none" xmlns="http://www.w3.org/2000/svg">
<path d="M5.58738 16.9984H3.59615C2.16234 16.9984 1 15.8791 1 14.4985V9.50094C1 8.12026 2.16234 7.00101 3.59615 7.00101H7.84186C8.05384 7.00101 8.25844 6.92609 8.41686 6.79046L13.5994 2.35362C14.5295 1.55733 16 2.19313 16 3.39157V6.58579L20.2929 2.29289C20.6834 1.90237 21.3166 1.90237 21.7071 2.29289C22.0976 2.68342 22.0976 3.31658 21.7071 3.70711L3.70711 21.7071C3.31658 22.0976 2.68342 22.0976 2.29289 21.7071C1.90237 21.3166 1.90237 20.6834 2.29289 20.2929L5.58738 16.9984Z" fill="#161616"/>
<path d="M9.76357 18.3621C9.54225 18.1726 9.52919 17.8348 9.73521 17.6287L15.1464 12.2175C15.4614 11.9025 16 12.1256 16 12.5711V20.6084C16 21.8069 14.5294 22.4427 13.5993 21.6463L9.76357 18.3621Z" fill="#161616"/>
<path d="M18.0174 9.34657C17.9404 9.42357 17.9226 9.5413 17.9694 9.63963C18.3095 10.3542 18.5 11.1539 18.5 12C18.5 12.9477 18.261 13.8373 17.8405 14.6141C17.6433 14.9783 17.7787 15.4335 18.143 15.6307C18.5072 15.8279 18.9624 15.6924 19.1596 15.3282C19.6958 14.3376 20 13.2032 20 12C20 10.7968 19.8984 10.1484 19.4916 9.29884C19.3728 9.07932 19.1989 8.77762 19.0732 8.58972C19.0049 8.48747 18.8775 8.48645 18.7905 8.57342L18.0174 9.34657Z" fill="#161616"/>
<path d="M20.1875 7.46011C20.1237 7.35938 20.1364 7.22751 20.2207 7.14321L20.945 6.41895C21.0544 6.30957 21.236 6.32466 21.3219 6.4533C22.3819 8.04071 23 9.9491 23 12C23 14.2261 22.2718 16.2843 21.0407 17.9464C20.7942 18.2793 20.3245 18.3492 19.9916 18.1027C19.6588 17.8562 19.5888 17.3865 19.8353 17.0536C20.8816 15.6411 21.5 13.8939 21.5 12C21.5 10.3296 21.0189 8.77333 20.1875 7.46011Z" fill="#161616"/>
</svg>

<svg xmlns="http://www.w3.org/2000/svg" viewBox="0 0 24 24"><path d="M5.587 16.998h-1.99C2.161 16.998 1 15.88 1 14.498V9.502C1 8.12 2.162 7 3.596 7h4.246a.9.9 0 0 0 .575-.21l5.182-4.437C14.53 1.557 16 2.194 16 3.392v3.194l4.293-4.293a1 1 0 1 1 1.414 1.414l-18 18a1 1 0 0 1-1.414-1.414zm4.177 1.364a.5.5 0 0 1-.029-.733l5.411-5.412a.5.5 0 0 1 .854.354v8.037c0 1.199-1.47 1.835-2.4 1.038zm8.253-9.015a.26.26 0 0 0-.048.293c.34.714.531 1.514.531 2.36 0 .948-.239 1.837-.66 2.614a.75.75 0 1 0 1.32.714c.536-.99.84-2.125.84-3.328s-.102-1.852-.508-2.701c-.12-.22-.293-.521-.419-.71-.068-.102-.195-.103-.282-.016z"/><path d="M20.188 7.46a.255.255 0 0 1 .033-.317l.724-.724a.244.244 0 0 1 .377.034A9.96 9.96 0 0 1 23 12a9.96 9.96 0 0 1-1.96 5.946.75.75 0 1 1-1.205-.892A8.46 8.46 0 0 0 21.5 12a8.46 8.46 0 0 0-1.312-4.54"/></svg>
